lib/brands/icons/swagger.svg

<svg xmlns="http://www.w3.org/2000/svg" fill="none" aria-hidden="true" viewBox="0 0 48 48"><g id="swagger-Icon"><g id="Group"><path id="Vector" fill="white" d="M23.8678 41.9996C14.2759 41.9334 5.93572 33.9729 6.00037 23.8591C6.06253 14.1275 14.1495 5.93405 24.1561 6.0004C33.8813 6.06502 42.0862 14.1375 41.9993 24.0273C42.0799 33.8274 33.8345 42.0688 23.8678 41.9996ZM23.8678 41.9996C14.2759 41.9334 5.93572 33.9729 6.00037 23.8591C6.06253 14.1275 14.1495 5.93405 24.1561 6.0004C33.8813 6.06502 42.0862 14.1375 41.9993 24.0273C42.0799 33.8274 33.8345 42.0688 23.8678 41.9996Z"/><path id="Vector_2" fill="#49A32B" d="M23.8853 39.609C15.5671 39.5516 8.33488 32.6483 8.39095 23.8779C8.44491 15.4386 15.4578 8.33321 24.1354 8.39097C32.5689 8.44702 39.6842 15.4475 39.6088 24.0238C39.6786 32.5222 32.5285 39.6691 23.8853 39.609ZM23.8853 39.609C15.5671 39.5516 8.33488 32.6483 8.39095 23.8779C8.44491 15.4386 15.4578 8.33321 24.1354 8.39097C32.5689 8.44702 39.6842 15.4475 39.6088 24.0238C39.6786 32.5222 32.5285 39.6691 23.8853 39.609Z"/><path id="Vector_3" fill="white" d="M29.8117 23.9938C29.7716 24.7378 29.1217 25.3555 28.4812 25.2477C28.4781 25.2477 28.4749 25.2477 28.4716 25.2477C27.7621 25.2487 27.1863 24.6742 27.1856 23.9647C27.2097 23.2533 27.7997 22.6927 28.5113 22.7047C29.2207 22.7082 29.85 23.3077 29.8117 23.9938ZM18.4033 31.2028C18.6708 31.2107 18.9385 31.2049 19.247 31.2049V33.1436C17.3296 33.4678 15.7502 32.9234 15.3626 31.3026C15.2299 30.7067 15.1484 30.1004 15.1185 29.4905C15.0773 28.8448 15.1485 28.1919 15.0993 27.5473C14.963 25.7737 14.7332 25.1682 13.0312 25.0844V22.8771C13.1532 22.8485 13.2769 22.8275 13.4014 22.8135C14.3345 22.7675 14.7278 22.4815 14.9366 21.5623C15.0315 21.0459 15.0878 20.5231 15.1045 19.9982C15.1784 18.9833 15.1522 17.952 15.3213 16.9535C15.5656 15.5097 16.462 14.8083 17.9426 14.7298C18.3638 14.7072 18.7865 14.7263 19.2638 14.7263V16.7079C19.0674 16.7218 18.8874 16.7504 18.7085 16.745C17.502 16.708 17.4395 17.119 17.3514 18.1178C17.2965 18.7442 17.3723 19.3812 17.3296 20.0097C17.285 20.6351 17.2013 21.2573 17.0791 21.8723C16.9051 22.7637 16.357 23.4266 15.5976 23.9892C17.0719 24.9486 17.2396 26.4393 17.3354 27.9531C17.3869 28.7665 17.3633 29.5857 17.4458 30.3951C17.5102 31.0234 17.7545 31.1837 18.4033 31.2028ZM19.6459 22.7047C19.6535 22.7047 19.661 22.7047 19.6687 22.7047C20.3735 22.7164 20.9357 23.2972 20.9241 24.0023C20.9241 24.0254 20.9233 24.0484 20.922 24.0714C20.8823 24.7604 20.2918 25.2866 19.6028 25.2469C19.575 25.2475 19.5474 25.2469 19.5197 25.2456C18.8181 25.2107 18.2775 24.6137 18.3123 23.9121C18.3472 23.2105 18.9443 22.6699 19.6459 22.7047ZM24.0384 22.7047C24.8094 22.6988 25.3214 23.1984 25.3254 23.9605C25.3297 24.7431 24.8442 25.2439 24.0783 25.2471C23.2993 25.2506 22.7865 24.7579 22.7823 24.0003C22.78 23.9617 22.7794 23.923 22.7805 23.8843C22.8022 23.2112 23.3654 22.6831 24.0384 22.7047ZM33.2353 21.7392C33.4404 22.5052 33.8396 22.7744 34.646 22.8112C34.7781 22.8173 34.9097 22.8397 35.0908 22.8598V25.0666C34.9928 25.0987 34.8922 25.1229 34.7902 25.1386C33.7096 25.2058 33.2171 25.6491 33.108 26.7325C33.0382 27.4242 33.044 28.1235 32.9961 28.8176C32.976 29.5798 32.9067 30.3398 32.7885 31.0929C32.5128 32.4575 31.6609 33.1382 30.2532 33.2213C29.8002 33.2481 29.3438 33.2255 28.8554 33.2255V31.2532C29.1183 31.2369 29.3504 31.2145 29.583 31.209C30.424 31.1889 30.7214 30.9177 30.7626 30.0824C30.8082 29.1648 30.8281 28.246 30.8691 27.3282C30.9286 26.0016 31.2919 24.8165 32.5277 23.989C31.8206 23.4849 31.2528 22.8742 31.1057 22.0508C30.9278 21.0528 30.8704 20.0327 30.7747 19.0207C30.7274 18.5147 30.7297 18.0044 30.6802 17.4989C30.627 16.9532 30.2521 16.7643 29.7554 16.7521C29.4708 16.7452 29.1851 16.7507 28.8213 16.7507V14.8247C31.1429 14.4393 32.7466 15.2117 32.8956 17.433C32.958 18.3658 32.9488 19.3029 33.0086 20.2357C33.0348 20.7431 33.1106 21.2467 33.2353 21.7392Z"/></g></g></svg>

<svg xmlns="http://www.w3.org/2000/svg" fill="none" aria-hidden="true" viewBox="0 0 48 48"><path fill="#fff" d="M23.868 42C14.276 41.933 5.936 33.973 6 23.86 6.063 14.127 14.15 5.933 24.156 6c9.725.065 17.93 8.137 17.843 18.027.08 9.8-8.165 18.042-18.131 17.973Zm0 0C14.276 41.933 5.936 33.973 6 23.86 6.063 14.127 14.15 5.933 24.156 6c9.725.065 17.93 8.137 17.843 18.027.08 9.8-8.165 18.042-18.131 17.973Z"/><path fill="#49A32B" d="M23.885 39.609c-8.318-.057-15.55-6.96-15.494-15.731.054-8.44 7.067-15.545 15.744-15.487 8.434.056 15.55 7.056 15.474 15.633.07 8.498-7.08 15.645-15.724 15.585Zm0 0c-8.318-.057-15.55-6.96-15.494-15.731.054-8.44 7.067-15.545 15.744-15.487 8.434.056 15.55 7.056 15.474 15.633.07 8.498-7.08 15.645-15.724 15.585Z"/><path fill="#fff" d="M29.812 23.994c-.04.744-.69 1.361-1.33 1.254h-.01a1.284 1.284 0 0 1-1.286-1.283 1.304 1.304 0 0 1 1.325-1.26c.71.003 1.339.603 1.3 1.289Zm-11.409 7.209c.268.008.536.002.844.002v1.939c-1.917.324-3.497-.22-3.884-1.841a10.761 10.761 0 0 1-.245-1.813c-.04-.645.03-1.298-.019-1.943-.136-1.773-.366-2.379-2.068-2.463v-2.207c.122-.028.246-.05.37-.063.934-.047 1.327-.332 1.536-1.252.095-.516.15-1.039.168-1.564.073-1.015.047-2.046.216-3.045.245-1.443 1.141-2.145 2.622-2.223.42-.023.843-.004 1.32-.004v1.982c-.196.014-.376.042-.555.037-1.206-.037-1.268.374-1.357 1.373-.054.626.021 1.263-.021 1.892a15.052 15.052 0 0 1-.25 1.862c-.175.892-.723 1.555-1.482 2.117 1.474.96 1.642 2.45 1.737 3.964.052.814.028 1.633.11 2.442.065.628.31.789.958.808Zm1.243-8.498h.023a1.277 1.277 0 0 1 1.253 1.366 1.25 1.25 0 0 1-1.32 1.176l-.082-.001a1.272 1.272 0 0 1 .126-2.541Zm4.392 0c.771-.006 1.283.493 1.287 1.256.005.782-.48 1.283-1.247 1.286-.779.004-1.291-.49-1.296-1.247a1.22 1.22 0 0 1 1.256-1.296Zm9.197-.966c.205.766.605 1.035 1.411 1.072.132.006.264.029.445.049v2.207a1.89 1.89 0 0 1-.3.072c-1.081.067-1.574.51-1.683 1.594-.07.691-.064 1.39-.112 2.085a17.68 17.68 0 0 1-.208 2.275c-.275 1.365-1.127 2.045-2.535 2.128-.453.027-.91.005-1.398.005v-1.973c.263-.016.495-.038.728-.044.841-.02 1.138-.291 1.18-1.127.045-.917.065-1.836.106-2.754.06-1.326.423-2.511 1.659-3.339-.707-.504-1.275-1.115-1.422-1.938-.178-.998-.236-2.018-.331-3.03-.048-.506-.045-1.017-.095-1.522-.053-.546-.428-.735-.925-.747-.284-.007-.57-.001-.934-.001v-1.926c2.322-.386 3.926.387 4.075 2.608.062.933.053 1.87.113 2.803.026.507.102 1.01.226 1.503Z"/></svg>
